tools/download-figma-icons/icons/outlined-medium/smiley-happy.svg

<svg width="24" height="24" viewBox="0 0 24 24" fill="none" xmlns="http://www.w3.org/2000/svg">
<path d="M12 24C5.385 24 0 18.615 0 12C0 5.385 5.385 0 12 0C18.615 0 24 5.385 24 12C24 18.615 18.615 24 12 24ZM12 1.5C6.21 1.5 1.5 6.21 1.5 12C1.5 17.79 6.21 22.5 12 22.5C17.79 22.5 22.5 17.79 22.5 12C22.5 6.21 17.79 1.5 12 1.5Z" fill="black"/>
<path d="M12.0224 18.6823C7.80744 18.6823 6.14994 15.4048 6.07494 15.2623C5.89494 14.8873 6.04494 14.4448 6.41994 14.2573C6.79494 14.0773 7.23744 14.2273 7.42494 14.5948C7.48494 14.7148 8.77494 17.1748 12.0224 17.1748C15.2699 17.1748 16.5224 14.7073 16.5749 14.5948C16.7549 14.2273 17.2049 14.0623 17.5724 14.2498C17.9474 14.4298 18.1049 14.8723 17.9249 15.2473C17.8574 15.3898 16.2374 18.6748 12.0224 18.6748V18.6823Z" fill="black"/>
<path d="M9.75006 11.25C9.53257 11.25 9.32256 11.16 9.17256 10.98L7.87507 9.41998L6.57757 10.98C6.31507 11.295 5.84257 11.34 5.52007 11.0775C5.20507 10.815 5.16007 10.3425 5.42257 10.02L7.29756 7.76998C7.58256 7.42498 8.16757 7.42498 8.45257 7.76998L10.3276 10.02C10.5901 10.335 10.5526 10.815 10.2301 11.0775C10.0876 11.1975 9.92256 11.25 9.75006 11.25Z" fill="black"/>
<path d="M18.0001 11.25C17.7826 11.25 17.5726 11.16 17.4226 10.98L16.1251 9.41998L14.8276 10.98C14.5651 11.295 14.0926 11.34 13.7701 11.0775C13.4551 10.815 13.4101 10.3425 13.6726 10.02L15.5476 7.76998C15.8326 7.42498 16.4176 7.42498 16.7026 7.76998L18.5776 10.02C18.8401 10.335 18.8026 10.815 18.4801 11.0775C18.3376 11.1975 18.1726 11.25 18.0001 11.25Z" fill="black"/>
</svg>

<svg xmlns="http://www.w3.org/2000/svg" width="24" height="24" fill="none" viewBox="0 0 24 24"><path fill="currentColor" d="M12 24C5.385 24 0 18.615 0 12S5.385 0 12 0s12 5.385 12 12-5.385 12-12 12m0-22.5C6.21 1.5 1.5 6.21 1.5 12S6.21 22.5 12 22.5 22.5 17.79 22.5 12 17.79 1.5 12 1.5"/><path fill="currentColor" d="M12.022 18.682c-4.215 0-5.872-3.277-5.947-3.42a.752.752 0 0 1 1.35-.667c.06.12 1.35 2.58 4.597 2.58s4.5-2.468 4.553-2.58a.744.744 0 0 1 .997-.345c.375.18.533.622.353.997-.068.143-1.688 3.428-5.903 3.428zM9.75 11.25a.74.74 0 0 1-.577-.27L7.875 9.42l-1.297 1.56a.756.756 0 0 1-1.058.098.756.756 0 0 1-.097-1.058l1.875-2.25c.285-.345.87-.345 1.155 0l1.875 2.25a.75.75 0 0 1-.578 1.23m8.25 0a.74.74 0 0 1-.577-.27l-1.298-1.56-1.297 1.56a.756.756 0 0 1-1.058.098.756.756 0 0 1-.097-1.058l1.875-2.25c.285-.345.87-.345 1.155 0l1.875 2.25A.75.75 0 0 1 18 11.25"/></svg>
